X:395
T: Salamanca Waltz
N: O'Farrell's Pocket Companion v.4 (Sky ed. p.169)
M: 3/8
L: 1/8
Q: 120
R: waltz
K: G
D| G/F/G/A/B/c/| dBB| cAA| BGD|
G/F/G/A/B/c/| dBB| cAA| G2 :|
G/B/| d2 B/G/| e2 g/e/| d d/B/c/A/| BG G/B/|
d2 B/G/| e2 g/e/| d d/B/c/A/| G2 :|
d| add| ggg| add| g2 G/B/| d2 B/G/| e2 g/e/|
d d/B/c/A/| G2 :|
